X:2175
T:Gyn ennym (no title) 
C:F Stowell 
C:Traditional
O:Isle of Man
Z:Clague collection
B:Kiaull Vannin #175 
M:4/4 
L:1/8 
Q:120 
K:G 
B>A|G2 G2 G2 B2|c2 A2 A2 Bc|d3 B c>B A2|GF E2 D2:| 
B>c|d2 d2 de f2|g4 d2 d2|e3 d c3 B|BA GB A>c BA| 
G2 G2 GA Bc|d4 !fermata!g2 e2|d2 G2 e2 dc|B2 A2 G2|| 

